X:81
T:Claw Her Weam. HA.080
T:Lass Of Livingston,aka. HA.080
T:Highland Laddie,aka. HA.080
M:C
L:1/8
Q:1/2=100
S:Henry Atkinson’s original MS,Hartburn,N’umberland,1694.
O:England
A:Hartburn,Northumberland
N:Aka Cockleshells..Translates roughly as “Tickle On The Tum”, if you get
N:my meaning. I
N:considered re-beaming to conform with modern expectations, as it would
N:not require altering the tune in any way, only it’s graphic
N:presentation. However, the original beaming, as here given, is graphic
N:and very suggestive of performance practice..CGP
H:1/8
Z:vmp.Chris Partington.Jan.2004
K:F
“^Original Beaming”CD|F3G A3f|cAcfcA GF|A3G G3F/G/|A3G G3F/D/|
F3G A3d|cA GFGA c2|d2D2 D2CD|F2D2 D2:|
|:ag|fcfgfgag|fcdfcA GF|A3G G3″^#”F|A3G G3F/D/|
fgagfafd|cAcdcd fg|a2D2 D2CD|F2D2 D2:|

